icons/global/user-settings/keybinds.svg

<svg xmlns="http://www.w3.org/2000/svg" width="24" height="24" fill="none">
  <path fill="#000" d="M20 5H4c-1.1 0-1.99.9-1.99 2L2 17c0 1.1.9 2 2 2h16c1.1 0 2-.9 2-2V7c0-1.1-.9-2-2-2Zm-8 3c.5 0 1 .5 1 1s-.5 1-1 1-1-.5-1-1 .5-1 1-1Zm0 3c.5 0 1 .5 1 1s-.5 1-1 1-1-.5-1-1 .5-1 1-1ZM9 8c.5 0 1 .5 1 1s-.5 1-1 1-1-.5-1-1 .5-1 1-1Zm0 3c.5 0 1 .5 1 1s-.5 1-1 1-1-.5-1-1 .5-1 1-1Zm-3 2c-.5 0-1-.5-1-1s.5-1 1-1 1 .5 1 1-.5 1-1 1Zm0-3c-.5 0-1-.5-1-1s.5-1 1-1 1 .5 1 1-.5 1-1 1Zm9 7H9c-.55 0-1-.45-1-1s.45-1 1-1h6c.55 0 1 .45 1 1s-.45 1-1 1Zm0-4c-.5 0-1-.5-1-1s.5-1 1-1 1 .5 1 1-.5 1-1 1Zm0-3c-.5 0-1-.5-1-1s.5-1 1-1 1 .5 1 1-.5 1-1 1Zm3 3c-.5 0-1-.5-1-1s.5-1 1-1 1 .5 1 1-.5 1-1 1Zm0-3c-.5 0-1-.5-1-1s.5-1 1-1 1 .5 1 1-.5 1-1 1Z"/>
</svg>

<svg width="24" height="24" viewBox="0 0 24 24" fill="none" xmlns="http://www.w3.org/2000/svg">
<path d="M20 5H4C2.9 5 2.01 5.9 2.01 7L2 17C2 18.1 2.9 19 4 19H20C21.1 19 22 18.1 22 17V7C22 5.9 21.1 5 20 5ZM12 8C12.5 8 13 8.5 13 9C13 9.5 12.5 10 12 10C11.5 10 11 9.5 11 9C11 8.5 11.5 8 12 8ZM12 11C12.5 11 13 11.5 13 12C13 12.5 12.5 13 12 13C11.5 13 11 12.5 11 12C11 11.5 11.5 11 12 11ZM9 8C9.5 8 10 8.5 10 9C10 9.5 9.5 10 9 10C8.5 10 8 9.5 8 9C8 8.5 8.5 8 9 8ZM9 11C9.5 11 10 11.5 10 12C10 12.5 9.5 13 9 13C8.5 13 8 12.5 8 12C8 11.5 8.5 11 9 11ZM6 13C5.5 13 5 12.5 5 12C5 11.5 5.5 11 6 11C6.5 11 7 11.5 7 12C7 12.5 6.5 13 6 13ZM6 10C5.5 10 5 9.5 5 9C5 8.5 5.5 8 6 8C6.5 8 7 8.5 7 9C7 9.5 6.5 10 6 10ZM15 17H9C8.45 17 8 16.55 8 16C8 15.45 8.45 15 9 15H15C15.55 15 16 15.45 16 16C16 16.55 15.55 17 15 17ZM15 13C14.5 13 14 12.5 14 12C14 11.5 14.5 11 15 11C15.5 11 16 11.5 16 12C16 12.5 15.5 13 15 13ZM15 10C14.5 10 14 9.5 14 9C14 8.5 14.5 8 15 8C15.5 8 16 8.5 16 9C16 9.5 15.5 10 15 10ZM18 13C17.5 13 17 12.5 17 12C17 11.5 17.5 11 18 11C18.5 11 19 11.5 19 12C19 12.5 18.5 13 18 13ZM18 10C17.5 10 17 9.5 17 9C17 8.5 17.5 8 18 8C18.5 8 19 8.5 19 9C19 9.5 18.5 10 18 10Z" fill="black"/>
</svg>
